X: 1222
T: Captain O'Neill
M:C|
L:1/8
R:Reel
B:O'Neill's1222
N:Collected by F. O'Neill
Z:Transcribed by Trish O'Neil
K:G
(ge) \
| dGBG FGAc | BGBdTg2fe | dGBG FGAc | BGAFG2 :|
| z2 \
| d>(g {a}(3gfg a)>(g {a}(3gfg) | d>(g {a}(3gfg)a2a2 | d>(g {a}(3gfg) agfd | (3efg fag2g2 |
| d>(g {a}(3gfg a)>(g {a}(3gfg) | d>(g {a}(3gfg)a2ga | bgaf gfed | (3efg fag2 |]


